X: 97
T: Anılsın Yâr ile...
C: Şemseddin Ziya Bey
O: Turkey
F: http://compmusic.upf.edu/node/140
N: hicaz--sarki--duyek--anilsin_yar--semseddin_ziya_bey
N: makam= hicaz
N: form= sarki
N: usul= duyek = 8/4
M: 8/4
L: 1/16
K: C _7/8B ^f ^c 
Q: 1/4=114
%%MIDI tuningsystem comma53
cd e4 dc cd cB A4  | fg a4 gf gf fe e4  | \
w:  ARANAĞME  |   | 
g2 a4 gf (3e2f2g2 (3=f2e2d2  | 
w:   | 
e2 =f4 ed (3c2d2e2 (3c2B2A2  | A2 B4 A2 (3d2c2d2 (3=f2e2d2  | \
w:   |   | 
c2 {e}dc cB BA A6 z2  | 
w:   | 
cd e4 dc cd cB A4  | fg a4 gf gf fe e4  | \
w:  ARANAĞME  |   | 
g2 a4 gf (3e2f2g2 (3=f2e2d2  | 
w:   | 
e2 =f4 ed (3c2d2e2 (3c2B2A2  | A2 B4 A2 (3d2c2d2 (3=f2e2d2  | \
w:   |   | 
c2 {e}dc cB BA A6 z2  | 
w:   | 
G2 A4 e=f ed cd e4  | c2 d4 e2 cB BA A4  | \
w:  A nıl *  *  sın  *  *  *  yâr_  |  i le  *  bir  *  *  *  yer  | 
d2 f4 g2 a2 {=b}ag f3/2e/ d2  | 
w:  de  mey *  nûş_ *  *  *  et  | 
ef ga =b2 ag gf fe e4  | G2 A4 e=f ed cd e4  | 
w:  ti *  *  *  ğim  *  *  dem *  *  *  ler    |  A nıl *  *  sın  *  *  *  yâr_  | 
c2 d4 e2 cB BA A4  | d2 f4 g2 a2 {=b}ag f3/2e/ d2  | \
w:  i le  *  bir  *  *  *  yer  |  de  mey *  nûş_ *  *  *  et  | 
ef ga =b2 ag gf fe e4  | 
w:  ti *  *  *  ğim  *  *  dem *  *  *  ler    | 
g2 a4 =b2 ag fe de fa  | g3/2=f/ eg f3/2e/ de cd cB c3/2B/ A2  | 
w:  Hem_ â *  nı  *  *  *  hem   |  be *  *  *  ni  *  *  *  ser *  *  *  mest_  | 
f2 g4 a2 g=f ed cB AG  | AB cd e2 dc cB BA A4  | 
w:  i  bî *  hûş_ *  *  *  et  |  ti *  *  *  ğim  *  *  dem *  *  *  ler    | 
g2 a4 =b2 ag fe de fa  | g3/2=f/ eg f3/2e/ de cd cB c3/2B/ A2  | 
w:  Hem_ â *  nı  *  *  *  hem   |  be *  *  *  ni  *  *  *  ser *  *  *  mest_  | 
f2 g4 a2 g=f ed cB AG  | AB cd e2 dc cB BA A4  | 
w:  i  bî *  hûş_ *  *  *  et  |  ti *  *  *  ğim  *  *  dem *  *  *  ler    | 
d2 f4 g2 ag fg a4  | =c'_1/4b ba ag ab ag f^e f4  | 
w:  Na sıl  *  çıl *  *  *  dır  |  ma *  *  *  dım  *  *  *  hay *  *  *  ret  | 
^ef g4 f=e a3g f3/2e/ d2  | ef ga =b2 ag gf fe e4  | 
w:  te *  yim  *  *  hâ *  lâ   |  se *  *  *  vin *  *  cim *  *  *  den    | 
d2 f4 g2 ag fg a4  | =c'_1/4b ba ag ab ag f^e f4  | 
w:  Na sıl  *  çıl *  *  *  dır  |  ma *  *  *  dım  *  *  *  hay *  *  *  ret  | 
^ef g4 f=e a3g f3/2e/ d2  | ef ga =b2 ag gf fe e4  | 
w:  te *  yim  *  *  hâ *  lâ   |  se *  *  *  vin *  *  cim *  *  *  den    | 
g2 a4 =b2 ag fe de fa  | g3/2=f/ eg f3/2e/ de cd cB c3/2B/ A2  | 
w:  Hem_ â *  nı  *  *  *  hem   |  be *  *  *  ni  *  *  *  ser *  *  *  mest_  | 
f2 g4 a2 g=f ed cB AG  | AB cd e2 dc cB BA A4  | 
w:  i  bî *  hûş_ *  *  *  et  |  ti *  *  *  ğim  *  *  dem *  *  *  ler    | 
g2 a4 =b2 ag fe de fa  | g3/2=f/ eg f3/2e/ de cd cB c3/2B/ A2  | 
w:  Hem_ â *  nı  *  *  *  hem   |  be *  *  *  ni  *  *  *  ser *  *  *  mest_  | 
f2 g4 a2 g=f ed cB AG  | AB cd e2 dc cB BA A4  | 
w:  i  bî *  hûş_ *  *  *  et  |  ti *  *  *  ğim  *  *  dem *  *  *  ler    | 
|


